X: 20
T: Halsway
C: Nigel Eaton
D: https://soundcloud.com/nigeleaton/halsway-the-very-first-version
H: Nigel Eaton: "Here's the one that started it all and here's a
H: lovely piccy of Halsway Manor which was the location of a Hurdy Gurdy
H: workshop that i wrote the tune for, nice innit? Pronounced Hall..zee"
Z: Gwen 2017-10-01 d'après la version de Carole
R: Scottish
M: 2/2
L: 1/8
Q: 1/2=80
K: G
|: d2cB AGAB | e2d2 A2Bc | e2d2 cBAG | c2B2 A2Bc |1
   d2cB AGAB | c2B2 A2BA | G2AB cBAG | B2A2 G2Bc :|2
   d2cB AGAB | c2B2 A4   | G2AB cBAG | B2A2 G3g
|  fgd2- dgfg | c2c2 B3G  | A2Bc dcBA | c2B2 A3g |
   fgd2 defg  | c2c2 B4   | G2AB cBAG | B2A2 G3g |
   fgd2- dgfg | c2c2 B4   | A2Bc dcBA | c2B2 A3g |
   fgd2- dgfg | c2c2 B4   | G2AB cBAG | B2A2 G2Bc |

